packages/astro-components-stencil/src/icons/delete-sweep.svg

<svg xmlns="http://www.w3.org/2000/svg" viewBox="0 0 24 24"><g xmlns="http://www.w3.org/2000/svg" id="delete-sweep" fill-rule="nonzero">
            <path d="M16 16h2c.55 0 1 .45 1 1s-.45 1-1 1h-2c-.55 0-1-.45-1-1s.45-1 1-1zm0-8h5c.55 0 1 .45 1 1s-.45 1-1 1h-5c-.55 0-1-.45-1-1s.45-1 1-1zm0 4h4c.55 0 1 .45 1 1s-.45 1-1 1h-4c-.55 0-1-.45-1-1s.45-1 1-1zM3 18c0 1.1.9 2 2 2h6c1.1 0 2-.9 2-2V8H3v10zM13 5h-2l-.71-.71c-.18-.18-.44-.29-.7-.29H6.41c-.26 0-.52.11-.7.29L5 5H3c-.55 0-1 .45-1 1s.45 1 1 1h10c.55 0 1-.45 1-1s-.45-1-1-1z"/>
        </g></svg>

<svg width="24" height="24" viewBox="0 0 24 24" fill="none" xmlns="http://www.w3.org/2000/svg">
<path fill-rule="evenodd" clip-rule="evenodd" d="M11 5H13C13.55 5 14 5.45 14 6C14 6.55 13.55 7 13 7H3C2.45 7 2 6.55 2 6C2 5.45 2.45 5 3 5H5L5.71 4.29C5.89 4.11 6.15 4 6.41 4H9.59C9.85 4 10.11 4.11 10.29 4.29L11 5ZM3 18C3 19.1 3.9 20 5 20H11C12.1 20 13 19.1 13 18V8H3V18ZM16 8H21C21.55 8 22 8.45 22 9C22 9.55 21.55 10 21 10H16C15.45 10 15 9.55 15 9C15 8.45 15.45 8 16 8ZM16 16H18C18.55 16 19 16.45 19 17C19 17.55 18.55 18 18 18H16C15.45 18 15 17.55 15 17C15 16.45 15.45 16 16 16ZM20 12H16C15.45 12 15 12.45 15 13C15 13.55 15.45 14 16 14H20C20.55 14 21 13.55 21 13C21 12.45 20.55 12 20 12Z" fill="black"/>
</svg>
